X:49
T:Tahi nei taru kino       
C:Pariare Tomoana
Q:1/4=190  
V:1     
M:4/4    
L:1/4    
K:G
z"G"D ^C D|EDDD|zGAB|"C"A2GE|zE"D7"FG|F2C2|zDEF|"G"E2DD|
W:Ta  - hi nei    ta-ru ki-no        Mahi whai-\"a -i-po        Kei te we -he-nga      A -ro-ha   kau a-na
z"Chorus"D ^C D|E2D2|zGAB|"C"d2c2|zc/c/BA|"G"BBAG|"D7"zAEF|"G"G3 ||
W:Ha  -  e - re   mai r\"a         Ki a-hau    nei r\"a         Te  a -ro-ha     ti-no nu-i           Ha-er-e     mai.
